X:1
T:Title
%%score { ( 1 3 ) | 2 }
L:1/8
M:3/4
K:Bb
V:1 treble nm="Grand Piano"
V:3 treble 
V:2 bass 
V:1
 z2 z2[Q:1/4=75] (3DFd | c->[Ec] [DB]>[DB] (3DFB | A4 z2 | d2 c2 z2 |[M:7/8] f-f- f3 z2 | %5
[M:3/4] c->[Ec] B->[DB] (3DFB |[M:2/4] A4 |[M:1/4] (3EFe |[M:3/4] d2 c2 z2 |[M:7/8] B-B- B3 z2 | %10
[M:2/4] [Gd]2 [DB]2 |[M:1/4] (3ABA |[M:3/4] G4 (3dd[^Fd] | d2 B2 (3[Gc][GB][Gc] | [^Fd]6 | %15
[M:1/4] (3DFd |[M:3/4] c2 z2 z z/ D/ | A4 z2 | d2 c2 z2 |[M:5/8] B-B- B3 |] %20
V:2
 z6 | [B,,F,]>[B,,F,] [B,,F,]>[B,,F,] [B,,F,B,]>B,, | [F,CE]>[F,C] [F,C]2 z2 | %3
 [F,A,F]>[F,A,] [F,A,E]>[F,A,] [F,CE]>[F,A,E] |[M:7/8] [B,,B,D]>[B,,B,] [B,,B,]3 z2 | %5
[M:3/4] [B,,F,]>[B,,F,] [B,,F,]>[B,,F,] [B,,F,B,]>B,, |[M:2/4] [F,CE]>[F,C] [F,C]2 |[M:1/4] z2 | %8
[M:3/4] [F,A,F]>[F,A,] [F,A,E]>[F,A,] [F,CE]>[F,A,E] | %9
[M:7/8] [B,,B,]>[B,,G,] [B,,F,]3 [D,^F,D]/[D,F,D][D,A,]/ |[M:2/4] [G,,B,]2 [G,,G,]2 | %11
[M:1/4] (3[D,^F,D][D,F,D][D,F,D] |[M:3/4] [G,B,]4 (3[D,^F,D][D,F,D][D,A,] | %13
 [G,,B,G]2 [G,D]2 (3:2:2[E,G,]2 [E,G,] | [D,A,]6 |[M:1/4] z2 | %16
[M:3/4] [B,,F,]>[B,,F,] [B,,F,]>[B,,F,] [B,,F,B,]>B,, | [F,CE]>[F,C] [F,C]2 z2 | %18
 [F,A,F]>[F,A,] [F,A,E]>[F,A,] [F,CE]>[F,A,E] |[M:5/8] [B,,B,]>[B,,G,] [B,,F,]3 |] %20
V:3
 x6 | E2 z2 z z/ D/ | z z/ E/ E2 (3EFe | z z/ F/ z z/ E/ A>F |[M:7/8] z z/ D/ D3 D/Fd/ | %5
[M:3/4] E2 D2 z z/ D/ |[M:2/4] z z/ E/ E2 |[M:1/4] x2 |[M:3/4] z z/ F/ z z/ E/ A>F | %9
[M:7/8] D>E D3 d/d[^Fd]/ |[M:2/4] x4 |[M:1/4] x2 |[M:3/4] x6 | x6 | x6 |[M:1/4] x2 | %16
[M:3/4] E>E [DB]>[DB] (3DFB | z z/ E/ E2 (3EFe | z z/ F/ z z/ E/ A>F |[M:5/8] D>E D3 |] %20

